X: 2
T: Pretty Pepper
R: reel
M: 4/4
L: 1/8
K: Gdor
g|"Gmin"dcAc d2 fd|"F"cAGA cFFg|"Gmin"dcAc d2 fd|"F"cFAc "Gmin"dGGg|
"Gmin"dcAc d2 fd|"F"cAGA cFFf|"Gmin"dcAc defd|"F"cFAc "Gmin"dGG:|
a|"Gmin"bagf g2 dg|"F"fdcf AFcA|"Gmin"bagf "Bflat"g2 dg|"Dmin"fdcA "Gmin"BGGa|
"Gmin"bagf g2 dg|"F"fdcB AFcA|"Bflat"bgaf "F"gefd|"Dmin"cFAc "Gmin"dGG||

